svg/human_non_binary.svg

<svg xmlns="http://www.w3.org/2000/svg" viewBox="0 0 24 24"><path d="M12 2a2 2 0 1 1 0 4c-1.11 0-2-.89-2-2s.9-2 2-2m1.91 6.41A1.99 1.99 0 0 0 12 7h-1.5c-1.1 0-2 .9-2 2v5.5H10V22h3.5v-6h3z"/></svg>

<svg xmlns="http://www.w3.org/2000/svg" id="mdi-human-non-binary" viewBox="0 0 24 24"><path d="M12 2C13.11 2 14 2.9 14 4S13.11 6 12 6 10 5.11 10 4 10.9 2 12 2M13.91 8.41C13.66 7.59 12.9 7 12 7H10.5C9.4 7 8.5 7.9 8.5 9V14.5H10V22H13.5V16H16.5L13.91 8.41Z" /></svg>
